!!!!SEGMENT: pl-wtm--1223-fp-3858--001-003_szymanowski-karol--fantaisie-op-14-iii.krn
!!!cenid: 19xx:57
!!!COM: Szymanowski, Karol
!!!COM-rismID: pe30106403
!!!CDT: 1882-1937
!!!CNT: Polish
!!!OPR: Fantaisie op. 14
!!!OTL: III.
!!!OMV: 003
!!!PDT: 1911
!!!AGN: Secular; Fantasy
!!!YEC: Copyright 2022 Narodowy Instytut Fryderyka Chopina (https://polishscores.org)
!!!YEM: License CC-BY-4.0 (https://creativecommons.org/licenses/by/4.0)
!!!SMS-siglum: PL-Wtm
!!!SMS-shelfmark: 1223 fp 3858
!!!SMS-variant:
!!!SMS-altvar:
!!!SMS-shelfwork: 001-003 M
!!!NIFC-rismSourceID: 1001214572
!!!NIFC-rismChildID: 1001214572
!!!NIFC-islandoraID: pl-wtm:82261
!!!URL-pdf-islandora: https://repozytorium.nifc.pl/islandora/object/pl-wtm%3A82261/datastream/PDF/view
!!!URL-scan: https://polish.musicsources.pl/pl/lokalizacje/galeria/druki-muzyczne/18510/8 @EN{Scan on Polish Music Sources Website} @PL{Skany w portalu Dziedzictwo Muzyki Polskiej w otwartym dostępie}
!!!IIIF:
!!!ONB-nifc: UWAGA: III część Fantazji, str. 8-11.
!!!AIN: 1 piano
!!!key: none
**kern	**fing	**kern	**dynam
*part1	*	*part1	*part1
*staff2	*	*staff1	*staff1/2
*group1	*	*group1	*
*ICklav	*	*ICklav	*
*Ipiano	*	*Ipiano	*
*I"Piano.	*	*I"Piano.	*
*I'	*	*I'	*
*clefF4	*	*clefG2	*
*k[]	*	*k[]	*
*c#:	*	*c#:	*
*M4/4	*	*M4/4	*
*met(c)	*	*met(c)	*
!!LO:TX:a:B:t=Allegro molto. deciso, energico.
!	!	!	!LO:DY:b=2
(<8.G#XL 8.GG#X^>/	.	4r	sf
16A#XJk 16AA#X^>/	.	.	.
=1	=1	=1	=1
*^	*	*^	*
!LO:TX:b:i:t=ten.	!	!	!LO:TX:t=P:problem:n w nawiasie	!	!
4ryy	2.c#X 2.C#X^\)	.	(>[4dd [>4fn N[4d/	4ryy	ff
!LO:TX:a:i:rj:t=m.s.	!	!	!	!	!
12d>\LN]	.	.	12dd]L 12f/]	4ryy	<
12c#X> 12A#X>\	.	.	12cc#X 12a#X/	.	.
12d>J 12B>\	.	.	12ddJ 12b/	.	.
8d> 8B>\	.	.	8bb 8dd 8b^/)	4ryy	[ sf
8rc>	.	.	8rff	.	.
!	!	!	!	!	!LO:DY:b=2
4rc>	(<8.G#XL 8.GG#X^>/	.	4rff	4ryy	sf
.	16A#XJk 16AA#X^>/	.	.	.	.
=2	=2	=2	=2	=2	=2
!LO:TX:b:i:t=ten.	!	!	!LO:TX:t=P:problem:n w nawiasie	!	!
4ryy	2.c#X 2.C#X^\)	.	(>[4dd [>4f N[4d/	4ryy	.
*Xtuplet	*	*	*Xtuplet	*	*
12d>\LN]	.	.	12dd]L 12f/]	4ryy	<
12c#X> 12A#X>\	.	.	12cc#X 12a#X/	.	.
12d>J 12B>\	.	.	12ddJ 12b/	.	.
8d> 8B>\	.	.	8bb 8dd 8b^/)	4ryy	[ sf
8ryy	.	.	8r	.	.
!	!	!	!	!	!LO:DY:b=2
4ryy	&(<8.G#XL (8.GG#X\	.	4r	4ryy	.
.	16A#XJk 16AA#X\)	.	.	.	.
*v	*v	*	*	*	*
*	*	*v	*v	*
!!LO:LB:g=original
=3	=3	=3	=3
*^	*	*	*
!LO:TX:b:i:t=ten.	!	!	!	!
(4G#X 4GG#X^/	2C#X\	.	([4dd [4b [4e# 4c#X^>/	<
8.F#XL 8.FF#X/	.	.	12dd]L 12b] 12e#/]	.
.	.	.	24cc#XLL 24a#X/	.
.	.	.	24c#X/	.
.	.	.	24dd 24b/	.
16E#XJk 16EE#X/)	.	.	.	.
.	.	.	24d/JJJ	[
.	[<8qD#X [8qDD#X\&)	.	.	.
!	!	!	!	!LO:DY:b:rj
8e#X 8dn 8A#X 8G#X^/	4D#] 4DD#\]	.	8bb 8gg#X 8ee# 8dd 8bn^\)	sff
8rB	.	.	8r	.
4rB	&(<8.C##XL (>8.CC##X^>\	.	4r	.
.	16D#yJk 16DD#y\)	.	.	.
=4	=4	=4	=4	=4
!LO:N:acc=n#	!	!	!	!
4C#X 4CC#X/	(2FF#X\	.	(>[4g [4en [4A#X 4F#X^>/	<
8.BBL 8.BBB/	.	.	12g]L 12e] 12A#/]	.
.	.	.	24f#XLL 24d#X/	.
.	.	.	24F#X/	.
.	.	.	24g 24e/	.
16AA#XJk 16AAA#X/	.	.	.	.
.	.	.	24G/JJJ	[
.	[<8qGG#X [8qGGG#X\&))	.	.	.
8A#X 8Gn 8D#X 8C#X^/	4GG#] 4GGG#\]	.	8ee 8cc#X 8a#X 8g 8e^>/)	sff
8rA	.	.	8r	.
!	!	!	!LO:TX:b:i:t=rit.	!
4rA	(>8.FF##XL 8.FFF##X\	.	4r	.
.	16GG#yJk 16GGG#y\)	.	.	.
*v	*v	*	*	*
!!LO:LB:g=original
=5||	=5||	=5||	=5||
*	*	*^	*
!!LO:TX:a:B:t=Quasi Cadenza.\nAndante, rubato, delicatamente. Molto espressivo.
!	!	!LO:TX:a:i:t=(molto\nlegato)	!	!
!	!	!LO:TX:b:i:t=(lungo)	!	!LO:DY:rj
2FF#X 2FFF#X;/	.	2r;	2ryy	ff
*clefG2	*	*8va	*	*
(<2f#X 2A#X/	.	(8bb#X/L	[2ee\	>
.	.	8ccc#X/	.	] pp
.	.	8fff#X/	.	<
.	.	8fffn/J	.	.
=6	=6	=6	=6	=6
*^	*	*	*	*
*	*^	*	*	*	*
!LO:TX:t=P:problem:mixed beam	!	!	!	!	!	!
8f##X/L	2B\	8ryy	.	(4eeen/	4eenX\]	.
8g#X/	.	4.g#\	.	.	.	[
*8va	*	*	*	*	*	*
8dd#>\	.	.	.	4ee/)	8dd#\Lyy	.
8cc#X>\J	.	.	.	.	8cc#X\Jyy	.
*X8va	*	*	*	*	*	*
!LO:TX:t=P:problem:## w nawiasie	!	!	!	!LO:TX:b:i:t=rit.	!	!
2f##X/	2B\)	2ryy	.	2ee#X/)	2cc#\	>]]
*clefF4	*	*	*	*	*	*
8qFF#X 8qFFF#X^/	.	.	.	.	.	.
*clefG2	*	*	*	*	*	*
=7	=7	=7	=7	=7	=7	=7
!LO:N:n=1:acc=n#	!	!	!	!	!	!
(<2f#X 2A/	2ryy	2ryy	.	(8bb#X/L	[2een\	<
.	.	.	.	8ccc#X/	.	.
.	.	.	.	8fff#X/	.	.
.	.	.	.	8fffn/J	.	.
!LO:TX:t=P:problem:mixed beam	!	!	!	!	!	!
8f##X/L	2B\	8ryy	.	4eee/	4ee\]	[>
8g#X/	.	4.g#\	.	.	.	.
*8va	*	*	*	*	*	*
8dd#>\	.	.	.	4ee/)	8dd#\Lyy	.
8cc#X>\J	.	.	.	.	8cc#X\Jyy	]
*X8va	*	*	*	*	*	*
*	*v	*v	*	*	*	*
=8	=8	=8	=8	=8	=8
!LO:N:n=1:acc=n#	!	!	!LO:TX:b:rj:i:t=avviv.	!LO:TX:t=P:problem:n w nawiasie	!
(2f#X 2A#X/)/	2ryy	.	(8bb#X/L	[2een\	<
.	.	.	8ccc#X/	.	.
.	.	.	8fff#X/	.	.
.	.	.	8fffn/J	.	.
8f##X/	[2B\	.	4eee/	4ee\]	[[
4.g#X/	.	.	.	.	>
!	!	!	!LO:TX:b:i:t=rit.	!	!
.	.	.	8.ee/L	8dd#X\L	.
.	.	.	.	8cc#X\J	.
.	.	.	16ee#X/Jk	.	]]
!!LO:LB:g=original
=9	=9	=9	=9	=9	=9
!LO:TX:a:i:t=(ten.)	!	!	!LO:TX:a:i:t=(ten.)	!	!
2cc##X:: 2g#X:: 2B]::/)	2ryy	.	2eee#X:: 2aa#X:: 2ee#X::/)	2ryy	pp
*clefF4	*	*	*	*	*
8qFF#X 8qFFF#X/	.	.	.	.	.
*clefG2	*	*	*	*	*
!	!	!	!	!LO:TX:t=P:problem:# w nawiasie	!
2cc##X/	(2g#X\	.	(8eeen/L	2aa#X\	<
.	.	.	8eee#X/	.	.
.	.	.	8aaa#X/	.	.
.	.	.	8aaan/J	.	.
=10	=10	=10	=10	=10	=10
*	*^	*	*	*	*
!LO:TX:t=P:problem:mixed beam	!	!	!	!	!	!
8a#X/L	2e\	8ryy	.	4ggg#X/	4gg#X\	.
8b/	.	4.b\	.	.	.	[
*8va	*	*	*	*	*	*
8ff#>\	.	.	.	4gg#/	8ff#\Lyy	.
8ee>\J	.	.	.	.	8ee\Jyy	.
*X8va	*	*	*	*	*	*
2b/	2e#X\)	2ryy	.	2aan/)	2dd#X\	>
*clefF4	*	*	*	*	*	*
!	!	!	!	!LO:TX:b:i:t=rit.	!	!
8qFF#X 8qFFF#X/	.	.	.	.	.	]
*clefG2	*	*	*	*	*	*
=11	=11	=11	=11	=11	=11	=11
2cc##X/	(2g#X\	2ryy	.	(8eee/L	2aa#X\	<
.	.	.	.	8eee#X/	.	.
.	.	.	.	8aaa#X/	.	.
.	.	.	.	8aaan/J	.	.
!LO:TX:t=P:problem:mixed beam	!	!	!	!	!	!
8a#X/L	2e\)	8ryy	.	4ggg#X/	4gg#X\	[>
8b/	.	4.b\	.	.	.	.
*8va	*	*	*	*	*	*
8ff#>\	.	.	.	4gg#/)	8ff#\Lyy	.
8ee>\J	.	.	.	.	8ee\Jyy	]]
*X8va	*	*	*	*	*	*
=12	=12	=12	=12	=12	=12	=12
!	!LO:TX:a:i:rj:t=avvivando	!	!	!	!	!
2cc##X/	(2g#X\	2ryy	.	(8eeen/L	2aa#X\	.
.	.	.	.	8eee#X/	.	.
.	.	.	.	8aaa#X/	.	.
.	.	.	.	8aaan/J	.	.
!LO:TX:t=P:problem:mixed beam	!	!	!	!LO:TX:b:i:t=rit.	!	!
8a#X/L	2e\)	8ryy	.	4ggg#X/	4gg#X\	>
8b/	.	4.b\	.	.	.	.
*8va	*	*	*	*	*	*
8ff#>\	.	.	.	8.gg#/L	8ff#\Lyy	.
8ee>\J	.	.	.	.	8ee\Jyy	.
*X8va	*	*	*	*	*	*
!	!	!	!	!LO:TX:t=P:problem:# w nawiasie	!	!
.	.	.	.	16aa#X/Jk)	.	]]
*	*v	*v	*	*	*	*
*	*	*	*v	*v	*
!!LO:LB:g=original
=13	=13	=13	=13	=13
(>[2dd#X;:/	[2b:: [2e#X::\	.	(>[2bb:: [2gg#X;:/	pp
*Xbrackettup	*Xbrackettup	*	*Xbrackettup	*
*	*	*	*tuplet	*
!	!	!	!LO:TX:a:i:t=(a piacere)	!
!	!	!	!LO:TX:b:i:t=(delicatamente)	!
!	!	!	!LO:TUP:b	!
8dd#/L]	4b_ 4e#\_	.	12bbL] 12gg#/]	<
.	.	.	24bb/	.
[8ddn/J	.	.	[8ccc#XJ [8ggn/	.
.	.	.	.	.
16dd]LL 16b] 16e#/]	1ryy	.	24ccc#]LL 24gg/]	.
.	.	.	24bb 24gg/	.
16eeJ 16a#X/	.	.	.	.
.	.	.	24ccc#/J	.
!	!	!	!LO:TX:b:i:t=avviv.	!
[8ee#XJ [>8cc##X [8g#X/	.	.	[8ccc##XJ [8aa#X/	.
16ee#]LL 16cc##] 16g#/]	.	.	12ccc##]L 12aa#/]	.
[<16ffnJ [16ddn/	.	.	.	.
.	.	.	24eeen/	[
[8aa-XJ [<8ff_ [<8dd_ [8ccn/	.	.	[8fffnJ [8dddn/	.
.	.	.	.	.
*	*	*	*Xtuplet	*
16aa-]LL 16ff] 16dd] 16cc/]	.	.	24fff]LL 24ddd\]	.
!	!	!	!LO:N:n=2:acc=n#	!
.	.	.	24eee 24ccc#X\	.
[<16ff#XJ [16dd#X/	.	.	.	.
.	.	.	24fffJ 24ddd\	.
[8aanJ 8ff#_ 8dd#_ [8bn/	.	.	[8fff#XJ [8ddd#X\	.
!	!	!	!LO:TX:b:i:t=dimin. e rallent.	!
16aa]LL 16ff#] 16dd#] 16b\]	.	.	12fff#]L 12ddd#\]	.
16bb-XJ 16ggn\	.	.	.	.
.	.	.	24gggn 24eee\	.
[8dddnJ [8bbn [8gg#X [<8ff#X\	.	.	[8ggg#XJ [8eee#X\	.
.	.	.	.	.
4ddd_ 4bb_ 4gg#/_	16ff#\LL]	.	24ggg#]LL 24eee#\]	.
.	.	.	24aaa#X 24fff##X\	.
.	[16ee#X\J	.	.	.
.	.	.	24bbbJ 24ggg#\	.
.	.	.	[8qggg#y/	.
.	8ee#\J_	.	[8gggg#XJ 8ggg#_\)	ppp
=14	=14	=14	=14	=14
*	*	*	*^	*
8ddd] 8bb] 8gg#/])	8ee#\]	.	8gggg#] 8ggg#;\]	2ryy	.
8r	8ryy	.	8rbb	.	.
*clefF4	*	*	*	*	*
!	!	!	!	!	!LO:DY:b=2
(2FF#X 2FFF#X~>/	4ryy	.	4rbb	.	pp
!	!	!	!	!	!LO:DY:rj
.	2d#>X 2Bn> 2F#X> 2D#X>~\	.	2bbbn 2fff#X 2ddd#X 2bbn~/	2ryy	pp <[[
[4FF# [4FFF#~>/	.	.	.	.	.
*v	*v	*	*	*	*
=15	=15	=15	=15	=15
*^	*	*	*	*
4FF#] 4FFF#/]	2f#X> 2d#X> 2A#X> 2F#X>~\	.	2aaa#X 2fff#X 2ddd#X 2aa#X~/	2ryy	>
2FF#X 2FFF#X~>/)	.	.	.	.	.
.	2fn> 2cn> 2An>~;\	.	2aaan 2fffn 2cccn 2aan~;/	2ryy	.
!	!	!	!LO:TX:b:i:t=(lungo)	!	!
4r;<	.	.	.	.	] ppp
*	*	*	*	*X8va	*
*v	*v	*	*	*	*
*	*	*v	*v	*
*	*	*clefF4	*
!!LO:TX:b:i:rj:t=attacca
!!LO:PB:g=original
=16||	=16||	=16||	=16||
*M4/4	*	*M4/4	*
*met(c)	*	*met(c)	*
*tuplet	*	*tuplet	*
*8ba	*	*	*
!!LO:TX:a:B:t=Allegro. Molto deciso e energico.
!LO:TUP:a:problem:klamra łukowa	!	!LO:TUP:a:problem:klamra łukowa	!
(12GGG-X^/L	.	(12GG-X^/L	] pp
12EEE-X/J)	.	12EE-X/J)	.
12r	.	12r	.
!	!	!LO:TX:t=mol-to cre-scen-do:ext=cd:problem:text with extention lines	!
8.r	.	8.r	<
(16DDDn/	.	(16DDn/	.
8.BBB^>/L)	.	8.BB^>/L)	.
(<16BBB-X/Jk	.	(<16BB-X/Jk	.
8FF^\)	.	8F^\)	.
8r	.	8r	.
=17	=17	=17	=17
!LO:TUP:a:problem:klamra łukowa	!	!LO:TUP:a:problem:klamra łukowa	!
(12EEnL 12EEEn^/	.	(12En^/L	.
12CC#XJ 12CCC#X/)	.	12C#X/J)	.
12r	.	12r	.
8.r	.	8.r	.
(16CCn 16CCCn/	.	(16Cn/	.
8.AAA^>/L)	.	8.AL 8.AA^\)	.
(<16AA-XJk 16AAA-X/	.	(16A-X\Jk	.
8EE^\)	.	8e 8E^\)	.
*X8ba	*	*	*
8r	.	8r	.
*	*	*clefG2	*
=18	=18	=18	=18
!LO:TUP:a:problem:klamra łukowa	!	!LO:TUP:a:problem:klamra łukowa	!
(12E-XL 12EE-X^/	.	(12ee-XL 12e-X^/	.
12CnJ 12CCn/)	.	12ccnJ 12cn/)	.
12r	.	12r	[
8.r	.	8.r	.
(16BB 16BBB/	.	(16b 16B/	.
8.G#XL 8.GG#X^\)	.	8.gg#XL 8.g#X\)	.
(16GnJk 16GGn\	.	(16ggnJk 16gn\	.
8e-X 8E-X^\)	.	8eee-X 8ee-X^\)	f
8r	.	8r	.
!!LO:LB:g=original
=19	=19	=19	=19
*	*	*8va	*
!LO:TUP:b:problem:klamra łukowa	!	!LO:TUP:a:problem:klamra łukowa	!
(12dL 12D^\	.	(12dddL 12dd/	.
12BnJ 12BBn\)	.	12bbnJ 12bn/)	<
12r	.	12r	.
8.r	.	8.r	.
(16B-X 16BB-X\	.	(16bb-X 16b-X/	.
*clefG2	*	*	*
8.gL 8.G^>/)	.	8.gggL 8.gg^\)	.
(16f#XJk 16F#X/	.	(16fff#XJk 16ff#X\	.
8.ddL 8.d^/)	.	8.ddddL 8.ddd^\)	.
16cc#XJk 16c#X/	.	16cccc#XJk 16ccc#X\	[[
=20	=20	=20	=20
*	*	*	*^
!	!	!	!LO:DY:b	!LO:DY:b=2:rj
[2aa [2a^\	.	[2aaaa [2aaa^\	sff	sff
8aa]L 8a\]	.	8aaaa]L 8aaa\]	.	.
8gg 8g^\	.	8gggg 8ggg^\	.	.
8ee-X 8e-X^\	.	8eeee-X 8eee-X^\	.	.
8dd-XJ 8d-X^\	.	8dddd-XJ 8ddd-X^\	.	.
*	*	*	*v	*v
=21	=21	=21	=21
!	!	!LO:TX:b:i:t=sempre	!
8aL 8A^/	.	8aaaL 8aa^\	.
8g#X 8G#X^/	.	8ggg#X 8gg#X^\	.
8e 8E^/	.	8eee 8ee^\	.
8dJ 8D^/	.	8dddJ 8dd^\	.
*clefF4	*	*X8va	*
!	!	!LO:TX:a:i:t=loco	!
8B-XL 8BB-X^/	.	8bb-XL 8b-X^\	.
8A 8AA^/	.	8aa 8a^\	.
8F 8FF^/	.	8ff 8f^\	.
8E-XJ 8EE-X^/	.	8ee-XJ 8e-X^\	.
!!LO:LB:g=original
=22	=22	=22	=22
8BBL 8BBB^>/	.	8bL 8B^>/	.
8AA 8AAA^>/	.	8a 8A^>/	.
8FF 8FFF^>/	.	8f 8F^>/	.
8EEJ 8EEE^>/	.	8eJ 8E^>/	.
*8ba	*	*clefF4	*
!	!	!LO:TX:b:i:t=poco rit.	!
8DD#XL 8DDD#X^>/	.	8d#XL 8D#X^\	.
8CC#X 8CCC#X^>/	.	8c#X 8C#X^\	.
8CCn 8CCCn^>/	.	8cn 8Cn^\	.
8BBB-XJ 8BBBB-X^>/	.	8B-XJ 8BB-X^\	.
=23	=23	=23	=23
*^	*	*^	*^
!	!	!	!	!	!LO:DY:b	!
8.AAAL 8.AAAA^>/	4ryy	.	8.AL 8.AA^>/	8.ryy	ff	.
*X8ba	*	*	*clefG2	*	*	*
(16GG/Jk	.	.	(16gJk 16G/	16ryy	.	.
8E^>/L)	8ryy	.	8eeL 8e^>/)	8ryy	.	.
*	*	*	*clefF4	*	*	*
8GG/J	(24DD#X\LL	.	8G/J	(24D#X\LL	<	<
.	24EE\	.	.	24E\	.	.
.	24FF#X\JJ	.	.	24F#X\JJ	.	.
8.BB-X/L	8GG\)	.	8.B-X/L	8G\)	[	[
.	8ryy	.	.	16ryy	.	.
*	*	*	*clefG2	*	*	*
(16E-X/Jk	.	.	(>16ee-XJk 16e-X/	16ryy	.	.
8B-X^>/)	4ryy	.	8bb-X 8b-X^>/)	4ryy	.	.
8rB	.	.	8rgg	.	.	.
=24	=24	=24	=24	=24	=24	=24
*8ba	*	*	*	*	*	*
8.AAAL 8.AAAA/	4ryy	.	8.r	4ryy	.	.
*X8ba	*	*	*	*	*	*
(16AA/Jk	.	.	(>16a 16A/	.	.	.
8F#X^>/L)	8ryy	.	8ff#XL 8f#X^>/)	8ryy	.	.
*	*	*	*clefF4	*	*	*
8AA/J	(24EE#X\LL	.	8A/J	(24E#X\LL	<	<
.	24FF#X\	.	.	24F#X\	.	.
.	24GG#X\JJ	.	.	24G#X\JJ	.	.
8.C/L	8AA\)	.	8.c/L	8A\)	[	[
.	8ryy	.	.	16ryy	.	.
*	*	*	*clefG2	*	*	*
(16Fn/Jk	.	.	(>16ffnJk 16fn/	16ryy	.	.
8c^>/)	4ryy	.	8ccc 8cc^>/)	4ryy	.	.
8rB	.	.	8rgg	.	.	.
*v	*v	*	*	*	*v	*v
*	*	*v	*v	*
!!LO:LB:g=original
=25	=25	=25	=25
!!LO:TX:a:B:t=Tempestuoso. (poco più mosso)
!	!	!	!LO:DY:a=2:t=(sempre %s)
4.AA 4.AAA^/	.	8.r	ff <
*	*	*8va	*
.	.	(16cccn 16aan 16ffn 16ccn/	.
.	.	4cccc 4aaa 4fff 4ccc^\)	[
8a 8f 8c 8A^\	.	.	.
*Xtuplet	*	*Xtuplet	*
!	!	!LO:TX:t=P:problem:łuk	!
!	!	!LO:TX:t=P:problem:znaki w nawiasie	!
8g#X 8e 8B 8G#X^\	.	24bbbnLL 24eeen 24bbn\	>
.	.	24ggg#X\	.
.	.	24eee\J	.
8r	.	24bb\L	.
.	.	24gg#X\	.
.	.	24ee\JJ	.
*8va	*	*	*
!LO:TX:t=P:problem:mixed beam	!	!	!
24b>\LL	.	4r	]
*X8va	*	*	*
24g#X/	.	.	.
24e/J	.	.	.
24B/L	.	.	.
24G#X/	.	.	.
24E/JJ	.	.	.
=26	=26	=26	=26
4.AA 4.AAA^/	.	8.r	<
.	.	(16ccc 16aa 16ff 16cc/	.
.	.	4cccc 4aaa 4fff 4ccc^\)	.
8a 8f 8c 8A^\	.	.	.
!	!	!LO:TX:t=P:problem:łuk	!
8g#X 8e 8B 8G#X^\	.	24bbbLL 24eee 24bb\	[>
.	.	24ggg#X\	.
.	.	24eee\J	.
8r	.	24bb\L	.
.	.	24gg#X\	.
.	.	24ee\JJ	]
*8va	*	*	*
!LO:TX:t=P:problem:mixed beam	!	!	!
24b>\LL	.	4r	.
*X8va	*	*	*
24g#X/	.	.	.
24e/J	.	.	.
24B/L	.	.	.
24G#X/	.	.	.
24E/JJ	.	.	.
=27	=27	=27	=27
*^	*	*	*
4.C 4.CC/	2ryy	.	8.r	ff <
.	.	.	(16eee-X 16ccc 16aa-X 16ee-X/	.
.	.	.	4eeee-X 4cccc 4aaa-X 4eee-^\)	.
8cc 8a-X 8e-X 8c^\	.	.	.	.
!LO:TR:acc=-	!	!	!LO:TX:t=P:problem:znaki w nawiasie	!LO:HP:a
2gtt/	4.dn 4.Bn\	.	(16ddddnLL 16dddn\	[>
.	.	.	16bbbn\	.
.	.	.	16ggg\	.
.	.	.	16ddd\JJ	.
.	.	.	16bb/LL	.
.	.	.	16gg/	.
!	!	!	!LO:TX:t=P:problem:- w nawiasie	!
.	8rD	.	16ee-X/	.
.	.	.	16dd/JJ)	]]
!!LO:LB:g=original
=28	=28	=28	=28	=28
4.C 4.CC/	2ryy	.	8.r	<
.	.	.	(16eee-X 16ccc 16aa-X 16ee-X/	.
.	.	.	4eeee-X 4cccc 4aaa-X 4eee-\)	.
8cc 8a-X 8e-X 8c\	.	.	.	.
!LO:TR:acc=-	!	!	!	!
(2gtt/	4.d 4.Bn\	.	(16dddd\LL	[
!	!	!	!LO:TX:t=P:problem:n w nawiasie	!
.	.	.	16bbbn\	>
.	.	.	16ggg\	.
.	.	.	16ddd\JJ	.
.	.	.	16bb/LL	.
.	.	.	16gg/	.
!	!	!	!LO:TX:t=P:problem:- w nawiasie	!
.	8rD	.	16ee-X/	.
.	.	.	16dd/JJ)	]]
*clefG2	*	*	*	*
=29	=29	=29	=29	=29
*	*	*	*	*^
*	*	*	*	*	*^
!	!	!	!	!LO:DY:b	!	!
2gttt/)	2e-X\	.	(16eee-XLL 16ee-X\	mf <	<	.
!!LO:TX:a:i:t=(poco più mosso)
.	.	.	16gg\	.	.	.
.	.	.	16aa-X\	.	.	.
.	.	.	16bb-X\JJ	.	.	.
.	.	.	16eee-\LL	.	.	.
!	!	!	!	!	!	!LO:HP:t=cresc. molto
.	.	.	16ggg\	.	.	<
.	.	.	16bbb-X\	.	.	.
.	.	.	16eeee-X\JJ)	.	[	.
8bnL 8g 8d 8Bn^\	2ryy	.	(16ddddLL 16ddd^\	[	.	.
!	!	!	!	!LO:DY:b	!	!
.	.	.	16bbbn\	ff	.	.
(16bbn\L	.	.	16ggg\	.	.	.
16gg\JJ	.	.	16ddd\JJ	>	.	.
16dd\LL	.	.	16bbn/LL	.	.	.
16b\	.	.	16gg/	.	.	.
!	!	!	!LO:TX:t=P:problem:- w nawiasie	!	!	!
16f#X\	.	.	16ee-X/	.	.	.
16g\JJ)	.	.	16dd/JJ)	]]	.	.
=30	=30	=30	=30	=30	=30	=30
!	!	!	!	!LO:DY:b	!	!
2gtt/	2e-X\	.	(16eee-XLL 16ee-X\	mf <	<	.
.	.	.	16gg\	.	.	.
.	.	.	16aa-X\	.	.	.
.	.	.	16bb-X\JJ	.	.	.
!	!	!	!	!	!	!LO:HP:t=cresc.mol.
.	.	.	16eee-\LL	.	.	<
.	.	.	16ggg\	.	.	.
.	.	.	16bbb-X\	.	.	.
.	.	.	16eeee-X\JJ)	.	.	.
!	!	!	!	!LO:DY:b	!	!
8cc-XL 8g-X 8e- 8c-X^\	2ryy	.	(16eeee-LL 16eee-^\	[ ff	[	.
.	.	.	16cccc-X\	>	.	.
(16ccc-X\L	.	.	16aaa-X\	.	.	.
16aa-X\JJ	.	.	16ggg\JJ	.	.	.
16gg-X\LL	.	.	16eee-\LL	.	.	.
16ee-X\	.	.	16ccc-X\	.	.	.
16cc-X\	.	.	16aa-X\	.	.	.
16g-\JJ)	.	.	16gg-X\JJ)	]]	.	.
*	*	*	*	*	*v	*v
*	*	*	*	*v	*v
!!LO:PB:g=original
=31	=31	=31	=31	=31
2antt/	2fn\	.	(16cccnLL 16ccn/	<
.	.	.	16ffn/	.
.	.	.	16aan/	.
.	.	.	16ccc/JJ	.
.	.	.	16fff\LL	.
.	.	.	16aaan\	.
.	.	.	16ccccn\	.
.	.	.	16ffff\JJ)	.
8cc-XL 8g-X 8e-X 8c-X^\	2ryy	.	(16eeee-XLL 16eee-X^\	[ ff
.	.	.	16cccc-X\	>
(16ccc-X\L	.	.	16aaa-X\	.
16aa-X\JJ	.	.	16ggg-X\JJ	.
16gg-X\LL	.	.	16eee-\LL	.
16ee-X\	.	.	16ccc-X\	.
16cc-X\	.	.	16aa-X\	.
16g-X\JJ)	.	.	16gg-X\JJ)	]
=32	=32	=32	=32	=32
2antt/	2f\	.	(16cccnLL 16ccn/	<
.	.	.	16ffn/	.
.	.	.	16aan/	.
.	.	.	16ccc/JJ	.
.	.	.	16fff\LL	.
.	.	.	16aaan\	.
.	.	.	16ccccn\	.
.	.	.	16ffff\JJ)	.
8cc-XL 8g-X 8e-X 8c-X^\	2ryy	.	(16eeee-XLL 16eee-X^\	[ ff >
.	.	.	16cccc-X\	.
(16ccc-X\L	.	.	16aaa-X\	.
16aa-X\JJ	.	.	16ggg-X\JJ	.
16gg-X\LL	.	.	16eee-\LL	.
16ee-X\	.	.	16ccc-X\	.
16cc-X\	.	.	16aa-X\	.
16g-X\JJ)	.	.	16gg-X\JJ)	]
!!LO:LB:g=original
=33	=33	=33	=33	=33
!LO:TR:acc=n	!	!	!LO:TX:t=P:problem:przenośnik oktawowy	!
2bntt/	8fn 8dn 8Gn\	.	(16eeee-XLL 16eee-X^\	>
.	.	.	16bbbn\	.
.	8rG	.	16gggn\	.
.	.	.	16fffn\JJ	.
.	4rG	.	16eee-\LL	.
.	.	.	16bbn\	.
.	.	.	16ggn\	.
.	.	.	16ff\JJ)	]
8f: 8c-X: 8A-X: 8D-X^>:/	2ryy	.	(16eeee-LL 16eee-^\	>
.	.	.	16dddd-X\	.
8r	.	.	16cccc-X\	.
.	.	.	16aaa-X\JJ	.
4r	.	.	16eee-\LL	.
.	.	.	16ddd-X\	.
.	.	.	16ccc-X\	.
.	.	.	16aa-X\JJ)	]
*v	*v	*	*	*
=34	=34	=34	=34
*	*	*	*^
*8va	*	*	*	*
!LO:TX:t=P:problem:mixed beam	!	!	!	!
(<16ee-X>\LL	.	(16ee-X/LL	<	.
*X8va	*	*	*	*
16dd-X/	.	16ff/	.	.
16cc-X/	.	16gg-/	.	.
16f/JJ	.	16aa-X/JJ	.	.
8d-X/)	.	16bb-X/LL	.	.
.	.	16ccc-X/	.	.
!	!	!	!	!LO:HP:a
8r	.	16ddd-X/	.	<
.	.	16dddn/JJ)	[	.
*	*	*X8va	*	*
!	!	!LO:TX:a:i:t=loco	!LO:DY:b	!
8c-XL 8G-X 8E-X 8C-X^>/	.	(16eee-XLL 16ee-X^\	ff	.
.	.	16ccc-X\	>	.
(16cc-X/L	.	16aa-X\	.	.
16a-X/JJ	.	16gg-X\JJ	.	.
16g-X/LL	.	16ee-\LL	.	.
16e-X/	.	16cc-X\	.	.
16c-/	.	16a-X\	.	.
16G-/JJ)	.	16g-X\JJ)	]	.
*clefF4	*	*	*	*
*	*	*	*v	*v
!!LO:LB:g=original
=35	=35	=35	=35
*^	*	*	*
!LO:TR:acc=n	!	!	!	!
2Bntt:/	8Fn: 8Dn: 8GGn:\	.	(16eee-XLL 16ee-X^\	>
.	.	.	16bbn\	.
.	8r	.	16ggn\	.
.	.	.	16ffn\JJ	.
.	4r	.	16ee-\LL	.
.	.	.	16bn\	.
.	.	.	16gn\	.
.	.	.	16f\JJ)	]
8F: 8C-X: 8AA-X: 8DD-X:/	2ryy	.	(16eee-LL 16ee-^\	>
.	.	.	16ddd-X\	.
8r	.	.	16ccc-X\	.
.	.	.	16aa-X\JJ	.
4r	.	.	16ee-\LL	.
.	.	.	16dd-X\	.
.	.	.	16cc-X\	.
.	.	.	16a-X\JJ)	]
*v	*v	*	*	*
=36	=36	=36	=36
*	*	*	*^
!LO:TX:t=P:problem:mixed beam	!	!	!	!LO:HP:a
(<16e>\LL	.	(>16e-X/LL	.	<
!	!	!LO:TX:a:t=poco diminuendo e:ext=s:problem	!LO:HP:a	!
16d-X/	.	16f/	>	.
16c-X/	.	16g-X/	.	.
16F/JJ	.	16a-X/JJ	.	.
8D-X/)	.	16b-X/LL	.	.
.	.	16cc-X/	.	.
8r	.	16dd-X/	.	.
.	.	16ddn/JJ)	.	.
!	!	!	!	!LO:HP:a
8C-XL 8GG-X 8CC-X\	.	(>16ee-XLL 16e-X^>/	.	[ f >
.	.	16cc-X/	.	.
(16c-X\L	.	16a-X/	.	.
16A-X\JJ	.	16g-X/JJ	.	.
16G-X\LL	.	16e-/LL	.	.
16E-X\	.	16c-X/	]	.
16C-\	.	16A-X/	.	.
16GG-\JJ)	.	16G-X/JJ)	.	]]
*	*	*	*v	*v
!!LO:LB:g=original
=37	=37	=37	=37
*^	*	*	*
!LO:TR:acc=n	!	!	!	!
2BBntt:/	8FFn: 8GGGn:\	.	(>16ee-XLL 16e-X^>/	>
!	!	!	!LO:TX:a:t=ritenuto-:dur=13s:ext=ud:problem:text with extention lines	!
.	.	.	16bn/	.
.	8ryy	.	16gn/	.
.	.	.	16fn/JJ	.
.	4ryy	.	16e-X/LL	.
.	.	.	16Bn/	.
.	.	.	16Gn/	.
.	.	.	16F/JJ)	]
8F 8C-X 8AA-X 8DD-X/	2ryy	.	(>16ee-LL 16e-^>/	>
.	.	.	16dd-X/	.
8r	.	.	16cc-X/	.
.	.	.	16a-X/J	.
4r	.	.	16e-/L	.
.	.	.	16d-X/	.
.	.	.	16c-X/	.
.	.	.	16A-X/JJ)	]
*v	*v	*	*	*
*	*	*clefF4	*
=38	=38	=38	=38
*	*	*	*^
!!LO:TX:a:i:t=(poco meno mosso)
!	!	!	!LO:DY:b	!LO:DY:b=2
(8.AA-XL 8.AAA-X^>/	.	(16E-X'\LL	p <	sf <
.	.	16F'\	.	.
.	.	16G-X'\	.	.
16BB-XJk 16BBB-X^>/	.	16A-X'\JJ	.	.
8D-X 8DD-X^>/)	.	16B-X'\LL	.	[[
.	.	16c-'\	.	.
8r	.	16d-X'\	.	.
.	.	16dn'\JJ)	[	.
*	*	*tremolo	*	*
!	!	!LO:TX:b:i:t=trillo	!LO:DY:b	!LO:DY:b=2
(8.AA-^>/L	.	(32eLLL 32c- 32A-\	pp	pp <
.	.	32f\	.	.
.	.	32e 32c- 32A-\	.	.
.	.	32f\	.	.
.	.	32e 32c- 32A-\	.	.
.	.	32f\	.	.
16BB-^>/Jk	.	32e 32c- 32A-\	.	.
.	.	32f\	.	.
8D-^>/)	.	32e 32c- 32A-\	.	.
.	.	32f\	.	[
.	.	32e 32c- 32A-\	.	.
.	.	32f\	.	.
8r	.	32e 32c- 32A-\	.	.
.	.	32f\	.	.
.	.	32e 32c- 32A-\	.	.
.	.	32f\JJJ)	.	.
*	*	*Xtremolo	*	*
*	*	*	*v	*v
!!LO:LB:g=original
=39	=39	=39	=39
*^	*	*^	*^
!!LO:TX:a:i:t=(Scherzando)
!	!	!	!	!	!LO:DY:b=2	!
(8.AA-XL 8.AAA-X^>/	2ryy	.	(16E-X'\LL	2ryy	sf <	.
.	.	.	16F'\	.	.	.
.	.	.	16G-X'\	.	.	.
16BB-XJk 16BBB-X^>/	.	.	16A-X'\JJ	.	.	.
8D-X 8DD-X^>/)	.	.	16B-X'\LL	.	.	.
.	.	.	16c-X'\	.	.	.
8r	.	.	16d-X'\	.	.	.
.	.	.	16dn'\JJ)	.	[	.
!	!	!	!	!	!LO:DY:b	!LO:DY:b=2
(24D-X/LL	[4C-\	.	8.A-^/L	[4F\	pp <	pp
24E-X/	.	.	.	.	.	.
24D-/	.	.	.	.	.	.
24E-/	.	.	.	.	.	.
24D-/	.	.	.	.	.	.
.	.	.	16B-^/Jk	.	.	.
24E-/JJ	.	.	.	.	.	.
8D-/)	8C-\]	.	8d-X^/	8F\]	.	.
8r	8ryy	.	8r	8ryy	[	.
*v	*v	*	*	*	*v	*v
=40	=40	=40	=40	=40
*	*	*	*	*^
!	!	!	!	!LO:DY:b=2:rj	!LO:HP:a
(8.AA-XL 8.AAA-X^>/	.	(16A-X/LL	[4F\	sf	<
.	.	16B-X/	.	.	.
.	.	16A-/	.	.	.
16BB-XJk 16BBB-X^>/	.	16B-/JJ	.	.	.
!	!	!LO:TX:a:t=(di-mi-nu-en-do):ext=cd:problem:text with extention lines	!	!LO:HP:a	!
8D-X 8DD-X^>/)	.	8d-X/)	8F\]	<	.
8r	.	8ryy	8r	.	[
!	!	!	!	!	!LO:HP:a
(16AA-/LL	.	8.A-^/L	[4F\	.	<
16BB-/	.	.	.	.	.
16AA-/	.	.	.	.	.
16BB-/JJ	.	16B-^/Jk	.	.	.
8D-/)	.	8d-^/	8F\]	.	.
8r	.	8ryy	8r	.	[
=41	=41	=41	=41	=41	=41
!	!	!	!	!	!LO:HP:a
8.AA-XL 8.AAA-X^>/	.	(16A-X/LL	[4F\	.	<
.	.	16B-X/	.	.	.
.	.	16A-/	.	.	.
16BB-XJk 16BBB-X^>/	.	16B-/JJ	.	.	.
8D-X 8DD-X^>/	.	8d-X/)	8F\]	.	[
8r	.	8ryy	8r	.	.
!	!	!	!	!	!LO:HP:a
(16AA-/LL	.	8.A-/L	[4F\	.	<
16BB-/	.	.	.	.	.
16AA-/	.	.	.	.	.
16BB-/JJ	.	16B-/Jk	.	[[	.
8D-/)	.	8d-/	8F\]	.	.
8r	.	8ryy	8r	.	[
*	*	*	*	*v	*v
*	*	*v	*v	*
!!LO:PB:g=original
=42	=42	=42	=42
!	!	!	!LO:HP:a=2
(8.AA-XL 8.AAA-X^/	.	(16A-XLL 16F^\	[ pp <
.	.	16B-X\	.
.	.	16A-\	.
16BB-XJk 16BBB-X/	.	16B-\JJ	[
8D-XL 8DD-X/)	.	16d-X\LL	.
.	.	16e-X\	.
8GGnJ 8GGGn'/	.	16d-\	.
.	.	16e-\JJ)	.
!	!	!	!LO:HP:a=2
(8.AA-L 8.AAA-^/	.	(16A-LL 16F^\	<
.	.	16B-\	.
.	.	16A-\	.
16BB-Jk 16BBB-/	.	16B-\JJ	[
8D-L 8DD-/)	.	16d-\LL	.
.	.	16e-\	.
8GGJ 8GGG'/	.	16d-\	.
.	.	16e-\JJ)	.
=43	=43	=43	=43
!	!	!	!LO:HP:a=2
(8.AA-XL 8.AAA-X^/	.	(16A-XLL 16F^\	<
.	.	16B-X\	.
.	.	16A-\	.
16BB-XJk 16BBB-X/	.	16B-\JJ	[
8D-XL 8DD-X/)	.	16d-X\LL	.
.	.	16e-X\	.
8GGnJ 8GGGn'/	.	16d-\	.
.	.	16e-\JJ)	.
!	!	!	!LO:HP:a=2
(8.AA-L 8.AAA-^/	.	(16A-LL 16F^\	<
.	.	16B-\	.
.	.	16A-\	.
16BB-Jk 16BBB-/	.	16B-\JJ	[
8D-L 8DD-/)	.	16d-\LL	.
.	.	16e-\	.
8GGJ 8GGG'/	.	16d-\	.
.	.	16e-\JJ)	.
=44	=44	=44	=44
(16AA-XLL 16AAA-X/	.	(16A-X\LL	.
16BB-X/	.	16B-X\	.
16AA-/	.	16A-\	.
16BB-/JJ	.	16B-\JJ	.
16D-X/LL	.	16d-X\LL	.
16E-X/	.	16e-X\	.
!	!	!LO:TX:t=cre-scen-do:ext=cd:problem:text with extention lines	!
16AA-/	.	16A-\	<
16BB-/JJ)	.	16B-\JJ)	.
(16AA-/LL	.	(16A-\LL	.
16BB-/	.	16B-\	.
16AA-/	.	16A-\	.
16BB-/JJ	.	16B-\JJ	.
16D-/LL	.	16d-\LL	.
16E-/	.	16e-\	.
16AA-/	.	16A-\	.
16BB-/JJ)	.	16B-\JJ)	.
*	*	*clefG2	*
!!LO:LB:g=original
=45	=45	=45	=45
(16AA-X/LL	.	(16A-X/LL	.
16BB-X/	.	16B-X/	.
16D-X/	.	16d-X/	[[
16E-X/JJ)	.	16e-X/JJ)	.
(16AA-/LL	.	(16A-/LL	.
!	!	!LO:TX:t=cre-scen-do:ext=cd:problem:text with extention lines	!
16BB-/	.	16B-/	<
16D-/	.	16d-/	.
16E-/JJ)	.	16e-/JJ)	.
(16AA-/LL	.	(16A-/LL	.
16BB-/	.	16B-/	.
16D-/	.	16d-/	.
16E-/JJ)	.	16e-/JJ)	.
(16D-\LL	.	(16d-/LL	.
16E-\	.	16e-/	.
16A-X\	.	16a-X/	.
16B-X\JJ)	.	16b-X/JJ)	[[
*clefG2	*	*	*
=46	=46	=46	=46
(16A-X/LL	.	(16a-X\LL	.
!	!	!LO:TX:t=cre-scen-do:ext=cd:problem:text with extention lines	!
16B-X/	.	16b-X\	<
16d-X/	.	16dd-X\	.
16e-X/JJ)	.	16ee-X\JJ)	.
(16d-/LL	.	(16dd-\LL	.
16e-/	.	16ee-\	.
16a-X/	.	16aa-X\	.
16b-X/JJ)	.	16bb-X\JJ)	.
*	*	*8va	*
(16a-\LL	.	(16aa-X\LL	.
16b-\	.	16bb-X\	.
16dd-X\	.	16ddd-X\	.
16ee-X\JJ)	.	16eee-X\JJ)	.
(16dd-\LL	.	(16ddd-\LL	.
16ee-\	.	16eee-\	[[
16aa-X\	.	16aaa-X\	.
16bb-X\JJ)	.	16bbb-X\JJ)	.
=47	=47	=47	=47
!	!	!LO:TX:t=cre-scen-do:ext=cd:problem:text with extention lines	!
(16aa-X\LL	.	(16aaa-X\LL	<
16bb-X\	.	16bbb-X\	.
16ddd-X\	.	16dddd-X\	.
16eee-X\JJ)	.	16eeee-X\JJ)	.
(16aa-\LL	.	(16aaa-\LL	.
16bb-\	.	16bbb-\	.
16ddd-\	.	16dddd-\	.
16eee-\JJ)	.	16eeee-\JJ)	.
(16aa-\LL	.	(16aaa-\LL	.
16bb-\	.	16bbb-\	[[
16ddd-\	.	16dddd-\	.
16eee-\JJ)	.	16eeee-\JJ)	.
(16aa-\LL	.	(16aaa-\LL	<
16bb-\	.	16bbb-\	.
16ddd-\	.	16dddd-\	.
16eee-\JJ)	.	16eeee-\JJ)	[[
!!LO:LB:g=original
=48	=48	=48	=48
*tremolo	*	*tremolo	*
16dd-X\LL	.	16dddd-XLL 16aaa-X 16ddd-X\	ff
16ee-X\	.	16eeee-X\	.
16dd-\	.	16dddd- 16aaa- 16ddd-\	.
16ee-\	.	16eeee-\	.
16dd-\	.	16dddd- 16aaa- 16ddd-\	.
16ee-\	.	16eeee-\	.
16dd-\	.	16dddd- 16aaa- 16ddd-\	.
16ee-\JJ	.	16eeee-\JJ	.
16dd-\LL	.	16dddd-LL 16aaa- 16ddd-\	.
16ee-\	.	16eeee-\	.
16dd-\	.	16dddd- 16aaa- 16ddd-\	.
16ee-\	.	16eeee-\	.
16dd-\	.	16dddd- 16aaa- 16ddd-\	.
16ee-\	.	16eeee-\	.
16dd-\	.	16dddd- 16aaa- 16ddd-\	.
16ee-\JJ	.	16eeee-\JJ	.
=49	=49	=49	=49
*	*	*	*^
!	!	!	!LO:DY:b	!
16dd-X\LL	.	16dddd-XLL 16aaa-X 16ddd-X\	ff	.
16ee-X\	.	16eeee-X\	.	.
16dd-\	.	16dddd- 16aaa- 16ddd-\	.	.
16ee-\	.	16eeee-\	.	.
16dd-\	.	16dddd- 16aaa- 16ddd-\	.	.
16ee-\	.	16eeee-\	.	.
16dd-\	.	16dddd- 16aaa- 16ddd-\	.	.
!!LO:TX:a:i:t=(non rallent.!)
16ee-\JJ	.	16eeee-\JJ	.	.
*Xtremolo	*	*	*	*
*clefF4	*	*	*	*
!	!	!	!	!LO:DY:b=2
4GG-X 4GGG-X^>/	.	16dddd-LL 16aaa- 16ddd-\	.	sf
.	.	16eeee-\	.	.
.	.	16dddd- 16aaa- 16ddd-\	.	.
.	.	16eeee-\	.	.
!	!	!	!	!LO:DY:b=2
!	!	!	!	!LO:HP:b=2
8.A-XL 8.AA-X^\	.	16dddd- 16aaa- 16ddd-\	.	sff <
.	.	16eeee-\	.	.
.	.	16dddd- 16aaa- 16ddd-\	.	.
16B-XJk 16BB-X^\	.	16eeee-\JJ	.	.
*	*	*Xtremolo	*	*
=50	=50	=50	=50	=50
!!LO:TX:a:B:t=Scherzando e capriccioso. (quasi ironico)
!	!	!	!LO:DY:b	!
4d-X 4D-X^\	.	(16aaa-XLL 16ddd-X\	ff <	[
.	.	16bbb-X\	.	.
.	.	16aaa- 16ddd-\	.	.
.	.	16bbb-\JJ	[[	.
*clefG2	*	*	*	*
!	!	!	!LO:DY:b	!LO:HP:b=2
(16a-X\LL	.	8dddd-X 8bbb- 8aaa- 8ddd-^\)	sf	<
16b-X\	.	.	.	.
16a-\	.	4dddd- 4bbb- 4aaa- 4ddd-`\	.	.
16b-\JJ	.	.	.	.
8dd-X^\L)	.	.	.	[
8bb-XJ 8dd- 8b-X`\	.	8dddd- 8bbb- 8aaa- 8ddd-`\	.	.
*tuplet	*	*tuplet	*	*
12bb-L 12dd- 12b-`\	.	12dddd-L 12bbb- 12aaa- 12ddd-`\	.	.
12bb- 12dd- 12b-`\	.	12dddd- 12bbb- 12aaa- 12ddd-`\	.	.
12bb-J 12dd- 12b-`\	.	12dddd-J 12bbb- 12aaa- 12ddd-`\	.	.
*	*	*	*v	*v
=51	=51	=51	=51
*M3/4	*	*M3/4	*
8bb-X 8dd-X 8b-X`\	.	8dddd-X 8bbb-X 8aaa-X 8ddd-X`\	.
4bb- 4dd- 4b-`\	.	4dddd- 4bbb- 4aaa- 4ddd-`\	.
8bb- 8dd- 8b-`\	.	4dddd- 4bbb- 4aaa- 4ddd-`\	???
*clefF4	*	*	*
!	!	!	!LO:HP:b=2
!	!	!	!LO:DY:b=2:rj
8.A-XL 8.AA-X^\	.	.	sff<
.	.	8dddd- 8bbb- 8aaa- 8ddd-`\	.
16B-XJk 16BB-X^\	.	.	[[
!!LO:LB:g=original
=52	=52	=52	=52
*M4/4	*	*M4/4	*
*met(c)	*	*met(c)	*
4dn 4Dn^\	.	(16aaa-XLL 16dddn\	<
.	.	16bbb-X\	.
.	.	16aaa- 16ddd\	.
.	.	16bbb-\JJ	.
*clefG2	*	*	*
!	!	!	!LO:HP:b=2
(16a-X\LL	.	8ddddn 8bbb- 8aaa- 8ddd^\)	[<
16b-X\	.	.	.
16a-\	.	4dddd 4bbb- 4aaa- 4ddd`\	.
16b-\JJ	.	.	[
8ddn^\L)	.	.	.
8bb-XJ 8dd 8b-`\	.	8dddd 8bbb- 8aaa- 8ddd`\	.
12bb-L 12dd 12b-`\	.	12ddddL 12bbb- 12aaa- 12ddd`\	.
12bb- 12dd 12b-`\	.	12dddd 12bbb- 12aaa- 12ddd`\	.
12bb-J 12dd 12b-`\	.	12ddddJ 12bbb- 12aaa- 12ddd`\	.
=53	=53	=53	=53
*M3/4	*	*M3/4	*
*	*	*	*^
8bb-X 8ddn 8b-X`\	.	8ddddn 8bbb-X 8aaa-X 8dddn`\	.	.
4bb- 4dd 4b-`\	.	4dddd 4bbb- 4aaa- 4ddd`\	.	.
8bb- 8dd 8b-`\	.	4dddd 4bbb- 4aaa- 4ddd`\	.	.
*clefF4	*	*	*	*
!	!	!	!LO:HP:b=2	!
!	!	!	!LO:DY:b=2:rj	!
8.A-XL 8.AA-X^\	.	.	sff <	.
.	.	8dddd 8bbb- 8aaa- 8ddd`\	.	.
16B-XJk 16BB-X^\	.	.	.	.
=54	=54	=54	=54	=54
*M4/4	*	*M4/4	*	*
*met(c)	*	*met(c)	*	*
4e-X 4E-X^\	.	(16aaa-XLL 16eee-X\	[<	.
.	.	16bbb-X\	.	.
.	.	16aaa- 16eee-\	.	.
.	.	16bbb-\JJ	.	.
*clefG2	*	*	*	*
(16a-X\LL	.	8eeee-X 8bbb- 8aaa- 8eee-^\)	[<	<
16b-X\	.	.	.	.
16a-\	.	4eeee- 4bbb- 4aaa- 4eee-`\	.	.
16b-\JJ	.	.	.	.
8ee-X^\L)	.	.	.	[
8bb-XJ 8ee- 8b-`\	.	8eeee- 8bbb- 8aaa- 8eee-`\	.	.
12bb-L 12ee- 12b-`\	.	12eeee-L 12bbb- 12aaa- 12eee-`\	.	.
12bb- 12ee- 12b-`\	.	12eeee- 12bbb- 12aaa- 12eee-`\	.	.
12bb-J 12ee- 12b-`\	.	12eeee-J 12bbb- 12aaa- 12eee-`\	[[	.
*	*	*	*v	*v
!!LO:LB:g=original
=55	=55	=55	=55
!	!	!	!LO:DY:b=2
(8qa-X 8qA-X/	.	.	sf
!	!	!LO:TUP:b:r=4:num=3	!LO:DY:rj
12cccnL 12gg-X 12ee-X'\)	.	(24eeee-XLL 24ccccn 24ggg-X\	fff >
.	.	24ffff\J	.
!!LO:TX:a:i:t=Ridente.
12ccc 12gg- 12ee-'\	.	24eeee- 24cccc 24ggg-\L	.
.	.	24ffff\J	.
12cccJ 12gg- 12ee-'\	.	24eeee- 24cccc 24ggg-\L	.
.	.	24ffff\JJ	.
!	!	!LO:TUP:b:r=4:num=3	!
12cccL 12gg- 12ee-'\	.	24eeee-LL 24cccc 24ggg-\	.
.	.	24ffff\J	.
12ccc 12gg- 12ee-'\	.	24eeee- 24cccc 24ggg-\L	.
.	.	24ffff\J	.
12cccJ 12gg- 12ee-'\	.	24eeee- 24cccc 24ggg-\L	.
.	.	24ffff\JJ	.
*	*	*tremolo	*
!	!	!LO:TUP:b:r=4:num=6	!
12cccL 12gg- 12ee-'\	.	24eeee-LL 24cccc 24ggg-\	]
.	.	24ffff\	.
12ccc 12gg- 12ee-'\	.	24eeee- 24cccc 24ggg-\	.
.	.	24ffff\	.
12ccc 12gg- 12ee-'\	.	24eeee- 24cccc 24ggg-\	.
.	.	24ffff\	.
12ccc 12gg- 12ee-'\	.	24eeee- 24cccc 24ggg-\	.
.	.	24ffff\	.
12ccc 12gg- 12ee-'\	.	24eeee- 24cccc 24ggg-\	.
.	.	24ffff\	.
12cccJ 12gg- 12ee-'\	.	24eeee- 24cccc 24ggg-\	.
.	.	24ffff\JJ)	.
*	*	*Xtremolo	*
=56	=56	=56	=56
8ccc 8gg-X 8ee-X^\	.	8aaaa-X 8eeee-X 8aaa-X^\	<
4ccc 4gg- 4ee-^\	.	4aaaa- 4eeee- 4aaa-^\	.
[8ccc [8gg- [8ee-^\	.	[8aaaa- [8eeee- [8aaa-^\	.
12ccc]L 12gg-] 12ee-\]	.	12aaaa-]L 12eeee-] 12aaa-\]	.
12ccc 12gg- 12ee-'\	.	12aaaa- 12eeee- 12aaa-'\	.
12cccJ 12gg- 12ee-'\	.	12aaaa-J 12eeee- 12aaa-'\	.
12cccL 12gg- 12ee-'\	.	12aaaa-L 12eeee- 12aaa-'\	.
12ccc 12gg- 12ee-'\	.	12aaaa- 12eeee- 12aaa-'\	.
12cccJ 12gg- 12ee-'\	.	12aaaa-J 12eeee- 12aaa-'\	[
*clefF4	*	*	*a
=57	=57	=57	=57
*	*	*^	*^
*Xtuplet	*	*	*	*	*
*8ba	*	*	*	*	*
!	!	!	!	!LO:DY:b	!LO:DY:b=2:rj
(12CCCn^>/L	.	8ggggn 8eeeen 8ccccn 8gggn^\	8ryy	sf	sf
*	*	*X8va	*	*	*
12GGGn/	.	.	.	.	.
!!LO:TX:a:i:t=Molto espr. ed appass.\n   (pochettino meno mosso)
!	!	!LO:TX:a:i:t=loco	!	!LO:DY:b:rj	!
.	.	8r	(8G^>\	mf	.
12CCn/J	.	.	.	.	.
!	!	!	!	!LO:HP:a	!
12GGn/L	.	4r	[4A^>\	<	.
12CC/	.	.	.	.	.
12GGG/J)	.	.	.	.	.
*	*	*	*Xtuplet	*	*
(12CCC/L	.	8r	12A\L]	.	.
12GGG/	.	.	12G\	.	.
.	.	((8e^/	.	[	.
12CC/J	.	.	12A\J	.	.
12GG/L	.	4f^/	[4B-X\)	.	.
12CC/	.	.	.	.	.
12GGG/J)	.	.	.	.	.
*	*	*	*	*v	*v
!!LO:PB:g=original
=58	=58	=58	=58	=58
(12CCC/L	.	12f/L)	12B-\L]	.
!	!	!LO:TX:t=cre-scen-do:ext=cd:problem:text with extention lines	!	!
12GGG/	.	12e/	12d\	<
12CC/J	.	12f/J	12c\J	.
12GG/L	.	4.g 4.e 4.B-X/)	4ryy	.
12CC/	.	.	.	.
12GGG/J)	.	.	.	.
(12CCC/L	.	.	2ryy	.
12GGG/	.	.	.	.
.	.	(>8g 8e 8B-/	.	.
12CC/J	.	.	.	.
12GG/L	.	[4a [>4e [4c/	.	.
12CC/	.	.	.	.
12GGG/J)	.	.	.	[[
*	*	*v	*v	*
=59	=59	=59	=59
(12CCC/L	.	12a]L 12e] 12c/]	<
12GGG/	.	12g 12e 12B-X/	.
12CC/J	.	12aJ 12e 12c/	.
12GG/L	.	[4b-X [>4e [4d/	.
12CC/	.	.	.
12GGG/J)	.	.	.
(12CCC/L	.	12b-]L 12e] 12d/]	.
12GGG/	.	12b- 12e 12c/	.
12CC/J	.	12bnJ 12e 12c/	.
!	!	!LO:TX:b:i:t=poco rit.	!
12GG/L	.	12ccL 12b-X 12e 12c/	.
12CC/	.	12dd 12d/	.
12GGG/J)	.	12dd#XJ 12d#X/)	[[
=60	=60	=60	=60
*	*	*^	*
(12CCC/L	.	(<[4ee [<4e^/	2b-X 2g\	sf
12GGG/	.	.	.	.
12CC/J	.	.	.	.
12EE/L	.	12ee]L 12e/]	.	ff <
*X8ba	*	*	*	*
!LO:TX:b:i:t=loco	!	!	!	!
12CC/	.	12dd#X 12d#X/	.	.
12GG/J	.	12eeJ 12e/)	.	.
12BB-X/L	.	[2eee [2bb-X [2gg [2ee^\	2ryy	.
12E/	.	.	.	.
12C/J	.	.	.	.
12G\L	.	.	.	.
12B-X\	.	.	.	.
12e\J	.	.	.	[[
*	*	*v	*v	*
=61	=61	=61	=61
4b-X\)	.	4eee] 4bb-] 4gg] 4ee\]	>
4g 4e 4B-X 4G^<\	.	4ddd#X 4bb-X 4gg 4dd#X^\	.
4g 4e 4B- 4G^<\	.	4dddn 4bb- 4gg 4ddn^\	.
!	!	!LO:TX:b:i:t=rit.	!
4g 4e 4B- 4G^<\	.	4ddd-X 4bb- 4gg 4dd-X^\	]
!!LO:LB:g=original
=62	=62	=62	=62
*	*	*	*^
*	*	*tremolo	*	*
!	!	!	!LO:DY:b	!
4GG-X 4GGG-X/	.	(16ddd-XLL 16bb-X 16dd-X\	mf <	.
.	.	16eee-X\	.	.
.	.	16ddd- 16bb- 16dd-\	.	.
.	.	16eee-\	.	.
!	!	!	!	!LO:DY:b=2
8.A-XL 8.AA-X^\	.	16ddd- 16bb- 16dd-\	.	sff
!	!	!	!	!LO:HP:a
.	.	16eee-\	.	<
.	.	16ddd- 16bb- 16dd-\	.	.
16B-XJk 16BB-X^\	.	16eee-\JJ)	.	.
*	*	*Xtremolo	*	*
!	!	!	!LO:DY:b	!
8d-XL 8D-X^\	.	8ddd-L 8bb- 8dd-\	[ ff	.
[8b-XJ [8g-X [8d- [8B-\	.	[8ddd-J [8bb- [8dd-\	.	.
*tuplet	*	*tuplet	*	*
12b-]L 12g-] 12d-] 12B-\]	.	12ddd-]L 12bb-] 12dd-\]	.	.
12b- 12g- 12d- 12B-\	.	12ddd- 12bb- 12dd-\	.	.
12b-J 12g- 12d- 12B-\	.	12ddd-J 12bb- 12dd-\	.	.
*	*	*	*v	*v
=63	=63	=63	=63
*	*	*^	*
*Xtuplet	*	*Xtuplet	*	*
!!LO:TX:a:i:t=(appassion.)
(12CCC/L	.	(<[4een [<4en^/	2b-X 2gn\	<
12CC/	.	.	.	.
12GGn/J	.	.	.	.
12BB-X/L	.	12ee]L 12e/]	.	.
12E/	.	12dd#X 12d#X/	.	.
12Gn/J)	.	12eeJ 12e/)	.	[
8gnL 8en 8B-X 8Gn^\	.	8eeenL 8bb-X 8ggn 8een^\	2ryy	.
8g 8e 8B- 8G^\	.	8eee-X 8bb- 8gg 8ee-X^\	.	.
!	!	!LO:TX:b:i:t=rit.	!	!
8g 8e 8B- 8G^\	.	8dddn 8bb- 8gg 8ddn^\	.	.
8gJ 8e 8B- 8G^\	.	8ddd-XJ 8bb- 8gg 8dd-X^\	.	.
*	*	*v	*v	*
=64	=64	=64	=64
*	*	*	*^
*	*	*tremolo	*	*
!	!	!	!LO:DY:b	!
4GG-X 4GGG-X/	.	(16ddd-XLL 16bb-X 16dd-X\	mf <	.
.	.	16eee-X\	.	.
.	.	16ddd- 16bb- 16dd-\	.	.
.	.	16eee-\	.	.
!	!	!	!	!LO:DY:b=2:rj
8.A-XL 8.AA-X^\	.	16ddd- 16bb- 16dd-\	.	sf
.	.	16eee-\	.	.
.	.	16ddd- 16bb- 16dd-\	.	.
16B-XJk 16BB-X^\	.	16eee-\JJ)	.	.
*	*	*Xtremolo	*	*
!	!	!	!LO:DY:b	!
8d-XL 8D-X\	.	8ddd-L 8bb- 8dd-\	[ ff	.
[8b-XJ [8g-X [8d- [8B-\	.	[8ddd-J [8bb- [8dd-\	.	.
*tuplet	*	*tuplet	*	*
12b-]L 12g-] 12d-] 12B-\]	.	12ddd-]L 12bb-] 12dd-\]	.	.
12b- 12g- 12d- 12B-\	.	12ddd- 12bb- 12dd-\	.	.
12b-J 12g- 12d- 12B-\	.	12ddd-J 12bb- 12dd-\	.	.
*	*	*	*v	*v
!!LO:LB:g=original
=65	=65	=65	=65
*^	*	*^	*^
*	*	*	*	*	*	*^
*Xtuplet	*	*	*	*	*	*	*
!!LO:TX:a:i:t=(sempre più appassion. ed affetuoso)
!	!	!	!	!	!LO:DY:b	!	!
(12CCC/L	2ryy	.	8rff	4.gn\	p	<	.
12CC/	.	.	.	.	.	.	.
.	.	.	(8cc 8c/	.	<	.	.
12GGn/J	.	.	.	.	.	.	.
!	!	!	!	!LO:TX:a:t=cre-scen-do:ext=cd:problem:text with extention lines	!	!	!
12Cn\L	.	.	[4ddn [<4dn/	.	.	.	<
12En\	.	.	.	.	.	.	.
.	.	.	.	8bn\	.	.	.
12Bn\J	.	.	.	.	.	.	.
*	*	*	*Xtuplet	*	*	*	*
4B-X^\	4ryy	.	12dd]L 12d/]	4b-X\	.	[	.
.	.	.	12cc 12c/	.	[[	.	.
.	.	.	12ddJ 12d/	.	.	.	.
8A-X/L	4E 4C 4BB-X\	.	4een 4en^/)	8a-X\L	.	.	.
8G/J)	.	.	.	8g\J	.	.	.
=66	=66	=66	=66	=66	=66	=66	=66
(12CC/L	2ryy	.	8r	4.ee-X\	.	<	.
12C/	.	.	.	.	.	.	.
.	.	.	(8aa-X 8a-X/	.	<	.	[
12E-X/J	.	.	.	.	.	.	.
12A-X\L	.	.	[4bb-X [<4b-X/	.	.	.	.
12c\	.	.	.	.	.	.	.
.	.	.	.	8gg\	.	.	.
12g\J	.	.	.	.	.	.	.
8f^\L	4ryy	.	12bb-]L 12b-/]	8ff\L	.	[	.
.	.	.	12aa- 12a-/	.	.	.	.
8f-\J	.	.	.	8ff-X\J	.	.	.
.	.	.	12bb-J 12b-/	.	.	.	.
8e-X/L	4Bn 4Gn 4Fn\	.	4bbn 4bn^/)	8ee-X\L	[	.	.
8d/J)	.	.	.	8dd\J	.	.	.
*	*	*	*	*	*	*v	*v
=67	=67	=67	=67	=67	=67	=67
*	*	*	*	*8va	*	*
(12CCL 12CCC/	2ryy	.	8rfff	4.gg\	.	.
12GG/	.	.	.	.	.	<
!	!	!	!LO:TX:t=cre-scen-do:ext=cd:problem:text with extention lines	!	!LO:HP:a	!
.	.	.	(8ccc 8cc/	.	<	.
12En/J	.	.	.	.	.	.
12G\L	.	.	[4ddd [<4dd/	.	.	.
12c\	.	.	.	.	.	.
.	.	.	.	8bbn\	.	.
12bn\J	.	.	.	.	.	.
4b-X\	4ryy	.	12ddd]L 12dd/]	4bb-X\	.	.
.	.	.	12ccc 12cc/	.	.	.
.	.	.	12dddJ 12dd/	.	.	.
8a-X/L	4e 4c 4B-X\	.	4eeen 4een^/)	8aa-X\L	.	.
8g/J)	.	.	.	8gg\J	[[	[
*	*	*	*	*	*v	*v
!!LO:LB:g=original
=68	=68	=68	=68	=68	=68
(>12CC/L	4ryy	.	8raaa	4.eee-X\	.
12C/	.	.	.	.	.
!	!	!	!	!	!LO:HP:b=2
.	.	.	(8aaa-X 8aa-X/	.	ff <
[<12E-X/J	.	.	.	.	.
12A-X/L	[4A- 4E-\_	.	[4bbb-X [<4bb-X/	.	.
12e-X/	.	.	.	.	.
.	.	.	.	8eeen\	.
12en/J)	.	.	.	.	.
4f/	4A-] 4E-\]	.	12bbb-]L 12bb-/]	4fff\	.
!	!	!	!LO:TX:b:i:t=riten.	!	!
.	.	.	12aaa- 12aa-/	.	.
.	.	.	12bbb-J 12bb-/)	.	.
(12g-XL 12c 12A- 12G-X\	4ryy	.	8ccccL 8ccc^/	4ggg-X\	[[
12Dn\	.	.	.	.	.
.	.	.	8cccJ 8cc/	.	.
12AA-X\J)	.	.	.	.	.
*	*	*	*X8va	*	*
*v	*v	*	*	*	*
*	*	*v	*v	*
=69	=69	=69	=69
*	*	*	*^
*	*below	*	*	*
!!LO:TX:a:B:t=Molto vivace.
!	!	!LO:TX:a:i:t=loco	!LO:DY:b	!
12GGG/L	5	8.r	mf	.
12GG/	1	.	.	.
12GG/J	5	.	<	.
.	.	(16gn 16en 16cn (16Gn/	.	.
12G/L	1	[4ee [4e^>/))	.	.
12GG/	5	.	.	.
12GG/J	1	.	.	.
12GGG/L	.	8.ee]L 8.e/]	.	.
12GG/	.	.	.	.
12GG/J	.	.	.	.
!	!	!	!	!LO:HP:a
.	.	(16ee-XJk 16b-X 16e-X/	.	<
12G/L	.	[4bb-X [4b-^\)	.	.
12GG/	.	.	[	.
12GG/J	.	.	.	.
*	*	*	*v	*v
=70	=70	=70	=70
!	!	!LO:TX:t=cre-scen-do:ext=cd:problem:text with extention lines	!
12GGG/L	.	8.bb-]L 8.b-\]	<
12GG/	.	.	.
12GG/J	.	.	.
.	.	(16aaJk 16ff#X 16cc 16a\	.
*	*	*8va	*
12G/L	.	[4fff#X [4ff#X^\)	.
12GG/	.	.	.
12GG/J	.	.	.
12GGG/L	.	8.fff#]L 8.ff#\]	.
12GG/	.	.	.
12GG/J	.	.	.
.	.	(16fffnJk 16ccc 16aa 16ffn\	.
12G/L	.	[4cccc [4ccc^\)	[[
12GG/	.	.	.
12GG/J	.	.	.
=71	=71	=71	=71
4GG 4GGG^^/	.	4cccc] 4ccc\]	.
*clefG2	*	*	*
!	!	!	!LO:DY:t=%s (pesante)
4bn 4f#X 4d#X 4Bn^^/	.	4bbbn 4fff#X 4ddd#X 4bbn^^\	ff
4ddn 4b-X 4fn 4dn^^/	.	4bbb-X 4fffn 4dddn 4bb-X^^\	.
4ee-X 4ccn 4f#X 4e-X^^/	.	4aaan 4fff#X 4cccn 4aan^^\	.
*clefF4	*	*	*
!!LO:LB:g=original
=72	=72	=72	=72
4GG 4GGG^^/	.	4r	.
*clefG2	*	*	*
4a-X 4e-X 4c 4A-X^^/	.	4aaa-X 4eee-X 4ccc 4aa-X^^\	.
4bn 4gn 4dn 4Bn^^/	.	4gggn 4dddn 4bbn 4ggn^^\	.
4ccn 4an 4e-X 4cn^^/	.	4fff#X 4eee-X 4aan 4ff#X^^\	.
*clefF4	*	*	*
=73	=73	=73	=73
4GG 4GGG^^/	.	4r	.
*clefG2	*	*	*
4fn 4cn 4An 4Fn^^/	.	4fffn 4cccn 4aan 4ffn^^\	.
4g#X 4en 4Bn 4G#X^^/	.	4eeen 4bbn 4gg#X 4een^^/	.
4an 4f#X 4cn 4An^^/	.	4eee-X 4cccn 4ff#X 4ee-X^^/	.
*clefF4	*	*	*
=74	=74	=74	=74
*^	*	*	*
4GG#X 4GGG#X^>/	4ryy	.	4r	.
*clefG2	*	*	*	*
!	!	!	!	!LO:DY:b=2
4a 4A^^/	2.f#X 2.d#X\	.	(16bb#XLL 16b#X^>/	sff <
.	.	.	16ff#X/	.
.	.	.	16gg#X/	.
.	.	.	16aa/JJ	.
4g#X 4G#X^^/	.	.	16bb#\LL	.
.	.	.	16fff#X\	.
.	.	.	16ggg#X\	.
.	.	.	16aaa\JJ	.
4f#X 4F#X^^/	.	.	16bbb#X\LL	.
.	.	.	16ffff#X\	.
.	.	.	16gggg#X\	.
.	.	.	16aaaa\JJ)	[[
*v	*v	*	*	*
*clefF4	*	*	*
=75	=75	=75	=75
*	*	*^	*
!!LO:TX:a:B:t=Trionfando.
(8CCC#X/L	.	(8ddd#XL 8dd#X^/	[[4ccc#X 4gg#X\	ff <
!	!	!LO:TX:b:i:t=(con passione)	!	!
8CC#X/	.	8eee 8ee^/	.	.
8GG#X/	.	8ggg#X 8ccc#]] 8gg#^>/	4ryy	.
8G#X/J)	.	8gggnJ 8ggn^>/	.	.
!LO:TX:t=P:problem:znaki w nawiasie	!	!LO:TX:b:i:t=rit.	!	!
(8DDnL 8DDDn/	.	4fff#X 4cccn 4ff#X^\	2ryy	[
8F#XJ 8AA/	.	.	.	.
*	*	*X8va	*	*
!	!	!LO:TX:a:i:t=loco	!	!
8cnL 8D\	.	4ff#X 4ccn 4f#X^\)	.	.
8dJ 8F#\)	.	.	.	.
!!LO:PB:g=original
=76	=76	=76	=76	=76
*	*	*	*	*^
!!LO:TX:a:B:t=Allegramente.
!!LO:TX:a:i:t=a tempo
!	!	!	!	!LO:DY:b:t=sempre %s	!
(12GGL 12GGG/	.	([4ggn [4gn/	2een 2ccn\	ff	.
12G 12GG/	.	.	.	.	<
12G#XJ 12GG#X/	.	.	.	.	.
*	*	*Xtuplet	*	*	*
12AL 12AA\	.	12gg]L 12g/]	.	<	.
12A#X 12AA#X\	.	12ff#X 12f#X/	.	.	.
12BJ 12BB\	.	12ggJ 12g/)	.	.	.
12cL 12C\	.	[2ggg [2eee [2ccc [2gg^\	2ryy	.	.
12d 12D\	.	.	.	.	.
12d#XJ 12D#X\	.	.	.	.	.
12eL 12E\	.	.	.	.	.
12f 12F\	.	.	.	.	.
12f#XJ 12F#X\	.	.	.	[[	[[
*	*	*	*	*v	*v
*	*	*v	*v	*
=77	=77	=77	=77
4g 4G\)	.	4ggg] 4eee] 4ccc] 4gg\]	,
*clefG2	*	*	*
4bn 4f#X 4d 4Bn^^/	.	4fff#X 4ddd 4bb 4ff#X^^\	>
4dd 4b-X 4fn 4d^^/	.	4fffn 4ddd 4bb-X 4ffn^^\	.
4cc 4g 4e^^/	.	4eee 4ccc 4gg 4ee^^\	]]
*clefF4	*	*	*
=78	=78	=78	=78
*	*	*^	*^
.	.	(16qqc/LL	.	.	.
.	.	16qqf/	.	.	.
.	.	16qqa/JJ	.	<	.
(12FFL 12FFF/	.	([4ccc [4aa [>4ff [4cc\)	4ryy	.	<
12C 12CC/	.	.	.	.	.
12C#XJ 12CC#X/	.	.	.	.	.
12DL 12DD/	.	4aa] 4ff/]	12ccc]L 12cc\]	.	.
12D#X 12DD#X/	.	.	12bb 12b\	.	.
12EJ 12EE/	.	.	12cccJ 12cc\)	.	.
*	*	*8va	*	*	*
12FL 12FF/	.	[2cccc [2aaa [<2fff [<2ccc^^\	2ryy	.	.
12G 12GG/	.	.	.	.	.
12G#XJ 12GG#X/	.	.	.	[	.
12AL 12AA\	.	.	.	.	.
12B-X 12BB-X\	.	.	.	.	[
12BnJ 12BBn\	.	.	.	.	.
*	*	*	*	*v	*v
*	*	*v	*v	*
!!LO:LB:g=original
=79	=79	=79	=79
4c 4C\)	.	4cccc] 4aaa] 4fff] 4ccc\]	.
4e 4B 4G 4E^^\	.	4bbb 4ggg 4eee 4bb^^\	>
4g 4e-X 4B-X 4G^^\	.	4bbb-X 4ggg 4eee-X 4bb-X^^\	.
4a 4f 4c 4A^^\	.	4aaa 4fff 4ccc 4aa^^\	]
*	*	*X8va	*
=80	=80	=80	=80
!	!	!LO:TX:a:i:t=loco	!
(8qBB-X 8qBBB-X/	.	.	.
*^	*	*^	*
2f 2d 2A-X 2F\)	2ryy	.	([4aa-X [4ff [>4dd [4a-X^^\	4ryy	mf <
.	.	.	4ff] 4dd/]	12aa-]L 12a-\]	.
.	.	.	.	12gg 12g\	.
.	.	.	.	12aa-J 12a-\)	.
(8qBBn 8qBBBn/	.	.	.	.	.
!LO:TX:t=P:problem:n w nawiasie	!	!	!	!	!
([4g [4d [>4Bn [4G^\)	4ryy	.	2ggg 2fff 2ddd 2gg^^\	2ryy	[ ff
4d] 4B/]	12g]L 12G\]	.	.	.	.
.	12f#X 12F#X\	.	.	.	.
.	12gJ 12G\)	.	.	.	.
=81	=81	=81	=81	=81	=81
(8qBB-X 8qBBB-X/	.	.	.	.	.
2f 2d 2A-X 2Fn^^\)	2ryy	.	([4aa-X [4ff [>4dd [4a-X^^\	4ryy	<
.	.	.	4ff] 4dd/]	12aa-]L 12a-\]	.
.	.	.	.	12gg 12g\	.
.	.	.	.	12aa-J 12a-\)	.
(8qBBn 8qBBBn/	.	.	.	.	.
!LO:TX:t=P:problem:n w nawiasie	!	!	!	!	!
([4g [4d [>4Bn [4G^\)	4ryy	.	4ggg 4fff 4ddd 4gg^^\	2ryy	[ ff
4d] 4B/]	12g]L 12G\]	.	4gg 4g^^\	.	.
.	12f#X 12F#X\	.	.	.	.
.	12gJ 12G\)	.	.	.	.
*v	*v	*	*	*	*
!!LO:LB:g=original
=82	=82	=82	=82	=82
*	*	*	*	*^
*	*	*	*	*	*^
*tuplet	*	*	*	*	*	*
!LO:TX:t=P:problem:"łamany" łuk	!	!	!	!LO:DY:b	!	!
!LO:TUP:b	!	!	!	!LO:HP:a	!	!LO:HP:b=2
N(20CC/LL	.	([4gg [4g/	2ee-X 2cc\	mf <	.	<
20GG/	.	.	.	.	.	.
!	!	!LO:TX:t=cre-scen-do:ext=cd:problem:text with extention lines	!	!	!LO:HP:a	!
20C/	.	.	.	.	<	.
20D/	.	.	.	.	.	.
20E-X/JJ	.	.	.	.	.	.
16G\LL	.	12gg]L 12g/]	.	.	.	.
16c\	.	.	.	.	.	.
.	.	12ff#X 12f#X/	.	.	.	.
16d\	.	.	.	.	.	.
.	.	12ggJ 12g/)	.	[	.	.
16e-X\JJ	.	.	.	.	.	[
4ryy	.	4ggg 4eee-X 4ccc 4gg/	16g\LL	.	.	.
.	.	.	16cc\	.	.	.
.	.	.	16dd\	.	.	.
.	.	.	16ee-X\JJ	.	.	.
8r	.	4ryy	16gg\LL	.	[	.
.	.	.	16ccc\	.	.	.
8BB-X 8BBB-X^>/	.	.	16ddd\	.	.	.
.	.	.	16eee-X\JJN)	.	.	.
*	*	*	*	*	*v	*v
=83	=83	=83	=83	=83	=83
*^	*	*	*	*	*
*	*	*	*8va	*	*	*
!LO:TX:t=P:problem:"łamany" łuk	!	!	!	!	!LO:DY:a	!
16GG/LL	2ryy	.	([4ccc [<4cc^>/	2gg 2ee-X\	.	<
16C/	.	.	.	.	.	.
!	!	!	!	!	!LO:HP:a	!
16D/	.	.	.	.	<	.
16E-X/JJ	.	.	.	.	.	.
16G/LL	.	.	12ccc]L 12cc/]	.	.	.
*clefG2	*	*	*	*	*	*
16c/	.	.	.	.	.	.
.	.	.	12bb 12b/	.	.	.
16d/	.	.	.	.	[	.
.	.	.	12cccJ 12cc/)	.	.	.
16e-X/JJ	.	.	.	.	.	.
16g\LL	4ryy	.	4cccc 4ggg 4eee-X 4ccc\	2ryy	.	.
16cc\	.	.	.	.	.	.
16dd\	.	.	.	.	.	.
16ee-X\JJ	.	.	.	.	.	[[
!LO:TX:t=P:problem:mixed beam	!	!	!LO:TX:t=P:problem:kłopot z zakodowaniem dźwięku - powinno być 16gg	!	!	!
16ryy	8r	.	16ggg</LL	.	.	.
*8va	*	*	*	*	*	*
16ryy	.	.	16ccc\	.	.	.
*clefF4	*	*	*	*	*	*
!LO:TX:t=P:problem:klucz basowy	!	!	!	!	!	!
16ryy	8A 8AA/	.	16ddd\	.	.	.
16ryy	.	.	16eee-\JJ	.	.	.
*X8va	*	*	*	*	*	*
*	*	*	*	*	*v	*v
*	*	*	*v	*v	*
!!LO:LB:g=original
=84	=84	=84	=84	=84
4GG#X 4GGG#X^^\	4ryy	.	4gg#<X 4g#<X^^/	.
*clefG2	*	*	*tuplet	*
4a 4A/	2f#X 2d#X\	.	(20bb#XLL 20b#X^/	<
.	.	.	20dd#X/	.
.	.	.	20ff#X/	.
.	.	.	20gg#X/	.
.	.	.	20aa/JJ	.
!	!	!	!LO:TUP:a	!
4g#X 4G#X^^>/	.	.	20bb#\LL	.
.	.	.	20ddd#X\	.
.	.	.	20fff#X\	.
.	.	.	20ggg#X\	.
.	.	.	20aaa\JJ	.
!	!	!	!LO:TUP:a	!
4f#X 4F#X^^/	4ryy	.	20bbb#X\LL	.
.	.	.	20dddd#X\	.
.	.	.	20ffff#X\	.
.	.	.	20gggg#X\	.
.	.	.	20aaaa\JJ)	[[
*v	*v	*	*	*
*clefF4	*	*	*
(8qCC#X 8qCCC#X^/	.	.	.
=85	=85	=85	=85
8d#XL 8c#X 8G#X 8D#X~\)	.	8ddd#XL 8ccc#X 8gg#X 8dd#X~/	fff
8e 8c# 8G# 8E~\	.	8eee 8ccc# 8gg# 8ee~/	.
8g#X 8e 8c# 8G#~\	.	8ggg#X 8eee 8ccc# 8gg#~/	.
8gnJ 8e 8c# 8Gn~\	.	8gggnJ 8eee 8ccc# 8ggn~/	.
!LO:TX:t=P:problem:mixed beam	!	!	!
8f#XL 8dn 8cn 8An 8F#X\	.	4fff#X 4dddn 4cccn 4aan 4ff#X^^</	.
!LO:TX:t=P:problem:znaki w nawiasie	!	!	!
8DDn 8DDDn/	.	.	.
*	*	*X8va	*
!	!	!LO:TX:b:i:t=riten.	!
!	!	!LO:TX:a:i:t=loco	!
8AA 8AAA/	.	4ff#X 4ddn 4ccn 4an 4f#X^^</	.
8AA-XJ 8AAA-X/	.	.	.
=86	=86	=86	=86
*	*	*^	*
*Xtuplet	*	*	*	*
!!LO:TX:a:i:t=agitato
!	!	!	!	!LO:DY:t=sub. %s
(12GGG/L	.	8r	4ryy	p
12GG/	.	.	.	.
.	.	(>8ee-X 8e-X/	.	.
12C/J	.	.	.	.
12A/L	.	[4ffn [<4fn^/	[>4a\	<
12F#X/	.	.	.	.
12GG/J)	.	.	.	.
*	*	*Xtuplet	*	*
(12GGG/L	.	12ff]L 12f/]	4a\]	.
12GG/	.	12ee- 12e-/	.	.
12D-X/J	.	12ffJ 12f/)	.	.
12B-X/L	.	4gg 4g^/	4b-X\	.
12G/	.	.	.	.
12GG/J)	.	.	.	[[
!!LO:LB:g=original
=87	=87	=87	=87	=87
(12GGG/L	.	8r	4ryy	.
12GG/	.	.	.	.
.	.	(>8ee-X 8e-X/	.	<
12C/J	.	.	.	.
!	!	!LO:TX:t=P:problem:znaki w nawiasie	!	!
12A/L	.	[4ffn [<4fn^/	[>4a\	.
12F#X/	.	.	.	.
12GG/J)	.	.	.	.
(12GGG/L	.	12ff]L 12f/]	4a\]	.
12GG/	.	12ee- 12e-/	.	.
12D-X/J	.	12ffJ 12f/)	.	.
12B-X/L	.	4gg 4g^/	4b-X\	.
12G/	.	.	.	[
12GG/J)	.	.	.	.
=88	=88	=88	=88	=88
(12GGG/L	.	8r	4ryy	.
12GG/	.	.	.	.
.	.	(>8ee-X 8e-X/	.	<
12C/J	.	.	.	.
12A/L	.	[4ff [<4f/	[>4a\	.
12F#X/	.	.	.	.
12GG/J)	.	.	.	.
(12GGG/L	.	12ff]L 12f/]	4a\]	.
12GG/	.	12ee- 12e-/	.	.
12D-X/J	.	12ffJ 12f/)	.	.
12B-X/L	.	8.ggL 8.b-X 8.g\	4ryy	.
12G/	.	.	.	.
[>12GG/J)	.	.	.	.
.	.	16gggJk 16gg\	.	[[
=89	=89	=89	=89	=89
*	*	*8va	*	*
!	!	!	!LO:TX:t=P:problem:łuk	!
8GG] 8GGG/	.	(2ggg 2gg^/	16gg\LL	f
.	.	.	16ccc\	.
8r	.	.	16aa\	.
.	.	.	16gg\JJ	.
*8va	*	*	*	*
!!LO:TX:a:i:t=cre-scen-do et ac-ce-le-ran-do:dur=10q:ext=cd:problem:text with extention lines
16ee-X>\L	.	.	16ee-X\Lyy	.
16cc>\	.	.	16cc\Jyy	.
*X8va	*	*	*	*
16a\	.	.	8ryy	.
16e-X\J	.	.	.	.
*tuplet	*	*	*	*
!LO:TUP:b:problem:klamra łukowa	!	!	!	!
12e-\L	.	4fff#X 4ff#X/)	2ryy	.
12E-X\J	.	.	.	.
12r	.	.	.	.
4GG 4GGG^^/	.	8ryy	.	.
.	.	(8aaa 8aa\	.	.
!!LO:PB:g=original
=90	=90	=90	=90	=90
!	!	!	!LO:TX:t=P:problem:łuk	!
4r	.	2aaa-X 2aa-X^/	16aa-\LL	<
.	.	.	16ddd-X\	.
.	.	.	16bb-X\	.
.	.	.	16aa-\JJ	.
*clefG2	*	*	*	*
16een/LL	.	.	4ryy	.
16dd-X/	.	.	.	.
16b-X/	.	.	.	.
16en/JJ	.	.	.	.
*clefF4	*	*	*	*
!LO:TX:t=P:problem:n w nawiasie	!	!	!	!
!LO:TUP:b:problem:klamra łukowa	!	!	!	!
12en\L	.	4.ggg 4.gg/)	2ryy	.
!LO:TX:t=P:problem:n w nawiasie	!	!	!	!
12En\J	.	.	.	[[
12r	.	.	.	.
4GG 4GGG^^/	.	.	.	.
.	.	(>8bbbn 8bbn/	.	.
=91	=91	=91	=91	=91
!	!	!	!LO:TX:t=P:problem:łuk	!
4r	.	2bbb-X 2bb-X^/	16bb-\LL	<
.	.	.	16eee-X\	.
.	.	.	16ccc\	.
.	.	.	16bb-\JJ	.
*clefG2	*	*	*	*
16gg-X\LL	.	.	4ryy	.
16ee-X\	.	.	.	.
16cc\	.	.	.	.
16g-X\JJ	.	.	.	.
!LO:TUP:b:problem:klamra łukowa	!	!	!	!
12g-/L	.	4.aaan 4.aan/)	2ryy	.
12G-X/J	.	.	.	.
12r	.	.	.	.
*clefF4	*	*	*	*
4GG 4GGG/	.	.	.	.
.	.	8cccc#X 8ccc#X/	.	[
*	*	*v	*v	*
*clefG2	*	*	*
!!LO:LB:g=original
=92	=92	=92	=92
!!LO:TX:a:B:t=Furioso.
4ccn 4f#X 4e-X^^/	.	(4..ccccn 4..fff#X 4..cccn^\	ff <
*clefF4	*	*	*
4GG 4GGG^^/	.	.	.
.	.	16bbbn 16bbn\)	.
*clefG2	*	*	*
!!LO:TX:a:i:t=(non rallentare!)
!LO:TX:a:i:t=(strepitoso)	!	!	!
4b-X 4g 4d-X^^/	.	(8.dddd-XL 8.ggg 8.ddd-X^\	.
.	.	16ccccJk 16ccc\)	.
4a 4f#X 4c^^/	.	(8.eeee-XL 8.aaa 8.eee-X^\	.
.	.	16ddddnJk 16dddn\)	.
=93	=93	=93	=93
4an 4e#X 4c#X 4Bn^^/	.	(8.eeee#XL 8.aaa 8.eee#X^\	.
.	.	16eeeenJk 16eeen\)	[ sfff
8a 8f#X 8c# 8A^^/	.	8aaaa 8ffff#X 8cccc#X 8aaa^\	.
*	*	*X8va	*
8r;	.	8r;	.
*clefF4	*	*	*
*ped	*	*	*
!	!	!	!LO:DY:a=2
4CC#X 4FFF#X^^/	.	4r	sff
*	*	*clefF4	*
!!LO:TX:a:B:t=Sub. Adagio. Mesto.
4r	.	(8.G#XL 8.GG#X^>/	ff
.	.	16AJk 16AA^>/	.
=94	=94	=94	=94
*8ba	*	*	*
!LO:TUP:a:problem:klamra łukowa	!	!	!
!LO:TX:a:i:t=quasi campana	!	!LO:TX:b:i:t=(ten.)	!
6CC#X 6FFF#X^/	.	2.c#X 2.F#X 2.C#X^^\)	.
6CCC#X^/	.	.	.
6CC# 6FFF#^/	.	.	.
4CCC#^/	.	.	.
!	!	!	!LO:DY:t=(meno %s)
4r	.	(8.G#XL 8.GG#X^/	f
.	.	16AJk 16AA/	.
!!LO:LB:g=original
=95	=95	=95	=95
*	*	*	*^
!LO:TUP:a:problem:klamra łukowa	!	!LO:TX:a:i:t=ten.	!	!LO:HP:a
6CC#X 6FFF#X/	.	2.c#X 2.F#X 2.C#X\)	.	>
6CCC#X/	.	.	.	.
6CC# 6FFF#/	.	.	.	.
4CCC#/	.	.	.	.
!	!	!	!LO:DY:b	!
4r	.	(8.G#XL 8.GG#X^>/	mp	.
.	.	16AJk 16AA/)	.	]
=96	=96	=96	=96	=96
*^	*	*^	*	*
!	!LO:TUP:b:problem:klamra łukowa	!	!LO:TX:b:i:t=ten.	!	!	!
(4GG#X^/	6CC#X 6FFF#X\	.	2.c#X 2.A 2.C#X^/	(4G#X\	.	.
.	6CCC#X\	.	.	.	.	.
8.FF#X/L	.	.	.	8.F#X\L	.	.
.	6CC# 6FFF#\	.	.	.	.	.
!	!	!	!	!LO:TX:t=dimi-nu-en-do:ext=cd:problem:text with extention lines	!	!LO:HP:a
16EE#X/Jk	.	.	.	16E#X\Jk	.	>
4EEn/)	4CCC#\	.	.	4En\)	.	.
!LO:TX:a:t=ral-len-tando:dur=5e:ext=cd:problem:text with extention lines	!	!	!	!	!	!
.	.	.	.	.	.	.
(8.DD#X^/L	4r	.	4re	(>8.D#X\L	.	.
16EE/Jk)	.	.	.	16E\Jk)	.	.
*	*	*	*v	*v	*	*
=97	=97	=97	=97	=97	=97
!LO:TX:a:i:t=(ten.)	!LO:TUP:b:problem:klamra łukowa	!	!LO:TX:a:i:t=(ten.)	!LO:DY:b	!
1DD#X	6FFF#X\	.	(2.D#X 2.C#X/	p	]
!	!	!	!	!	!LO:HP:a
.	6CCC#X\	.	.	.	>
.	6FFF#\	.	.	.	.
.	4CCC#\	.	.	.	.
*	*X8ba	*	*	*	*
!	!	!	!	!LO:DY:b	!
.	4r	.	4BB#X/)	ppp	]
*	*	*	*clefG2	*	*
*	*	*	*	*v	*v
!!LO:LB:g=original
=98	=98	=98	=98	=98
!!LO:TX:a:B:t=Subito Allegramente.
4GG#X 4GGG#X^^/	4ryy	.	4r	fff
4A 4AA^^/	2.D#X 2.BB#X\	.	(>12aL 12f#X 12d#X 12B#X 12A^>/	<
.	.	.	12b#X 12B#/	.
.	.	.	12dd#XJ 12d#/	.
4G#X 4GG#X^^/	.	.	12aaL 12a\	.
.	.	.	12bb#X 12b#X\	.
.	.	.	12ddd#XJ 12dd#X\	.
*	*	*	*8va	*
4F#X 4FF#X^^/	.	.	16aaaLL 16aa\	.
.	.	.	16bbb#X 16bb#X\	.
.	.	.	16dddd#X 16ddd#X\	.
.	.	.	16ffff#XJJ 16fff#X\)	[
*	*	*	*X8va	*
!	!	!	!	!LO:DY:b=2:rj
.	[<8qCC#X [8qCCC#X/	.	.	sff
=99	=99	=99	=99	=99
*ped	*	*	*	*
!LO:TX:t=P:problem:Ped. w nawiasie	!	!	!	!
4d#X 4c#X 4G#X 4D#X^^/	1CC#] 1CCC#]	.	4ddd#X 4ccc#X 4gg#X 4dd#X^^\	fff
!	!	!	!LO:TX:b:i:t=riten.	!
4e 4c# 4G# 4E^^/	.	.	4eee 4ccc# 4gg# 4ee^^\	.
4g#X 4e 4c# 4G#^^/	.	.	4ggg#X 4eee 4ccc# 4gg#^^\	.
4gn 4e 4c# 4Gn^^/	.	.	4gggn 4eee 4ccc# 4ggn^^\	.
=100	=100	=100	=100	=100
*	*^	*	*	*
2f#X 2dn 2cn 2F#X^^/	4ryy	4ryy	.	2fff#X 2dddn 2cccn 2ff#X^^\	.
!	!	!	!	!LO:TX:b:i:t=riten.	!
.	4D^^>/	4DD 4DDD^^<\	.	.	.
2d 2c 2A 2D^^/	4ryy	4ryy	.	2ff# 2ddn 2ccn 2f#X^^/	.
.	4G^^>/	4GG^^<\	.	.	.
*v	*v	*v	*	*	*
!!LO:LB:g=original
=101	=101	=101	=101
!	!	!	!LO:DY:rj
4e 4c 4G 4E^^/	.	4gg 4ee 4cc 4g^^/	sf
!	!	!	!LO:DY:b=2:rj
([4GGG^^\	.	([4GG<^^/	sff
!	!	!LO:TX:t=P:problem:mixed beam	!
8qqGGG\L]	.	8qqGG</L]	.
!LO:TX:b:i:t=gliss.	!	!LO:TX:b:i:t=gliss.	!
8qqAAA\	.	8qqAA</	.
8qqBBB\	.	8qqBB</	.
8qqCC\	.	8qqC</	.
8qqDD\	.	8qqD</	.
8qqEE\	.	8qqE</	.
8qqFF\	.	8qqF</	.
8qqGG\	.	8qqG</	.
8qqAA\	.	8qqA</	.
8qqBB\	.	8qqB</	.
8qqC\	.	8qqc\	.
8qqD\	.	8qqd\	.
8qqE\	.	8qqe\	.
8qqF\	.	8qqf\	.
8qqG\	.	8qqg\	.
8qqA\	.	8qqa\	.
8qqB\	.	8qqb\	.
8qqc\	.	8qqcc\	.
8qqd\	.	8qqdd\	.
8qqe\	.	8qqee\	.
8qqf\	.	8qqff\	.
8qqg\	.	8qqgg\	.
*clefG2	*	*	*
8qqa\	.	8qqaa\	.
8qqb\	.	8qqbb\	.
8qqcc\	.	8qqccc\	.
*	*	*8va	*
8qqdd\	.	8qqddd\	.
8qqee\	.	8qqeee\	.
8qqff\	.	8qqfff\	.
8qqgg\	.	8qqggg\	.
8qqaa\	.	8qqaaa\	.
8qqbb\	.	8qqbbb\	.
8qqccc\	.	8qqcccc\	.
8qqddd\	.	8qqdddd\	.
8qqeee\	.	8qqeeee\	.
8qqfff\J	.	8qqffff\J	.
=102	=102	=102	=102
!	!	!LO:TX:t=P:problem:mixed beam	!
8ggg)	.	8gggg\L)	.
*	*	*X8va	*
8r	.	16r	.
!!LO:TX:a:B:t=Molto vivace.
.	.	(>16gJk 16G/	ff
*clefF4	*	*	*
4c 4G 4C^\	.	8.eeL 8.cc 8.g 8.e^>/)	<
.	.	(16dd#XJk 16d#X/	.
4A 4D# 4GG^\)	.	8.aaL 8.dd# 8.cc 8.a^\)	.
.	.	.	.
.	.	(16aa-XJk 16a-X\	.
[4D [>4AA- [4CC^>/	.	[4fff [4bb [4aa- [4ff^\)	.
.	.	.	.
.	.	.	.
=103	=103	=103	=103
8.D] 8.AA-] 8.CC/]L	.	8.fff]L 8.bb] 8.aa-] 8.ff\]	.
(16E 16C 16GG 16CC\J	.	(16eeeJk 16ccc 16gg 16ee\	.
8CC 8CCC^>/)	.	8cccc 8ccc^\)	[ sfff
8r	.	8r	.
2G 2C^^\;<	.	2e 2c^^;/	sfff
==	==	==	==
*-	*-	*-	*-
!!!system-decoration: {(g1)}
!!!RDF**kern: i = editorial accidental
!!!RDF**kern: > = above
!!!RDF**kern: < = below
!!!RDF**kern: N = linked
!!!RDF**dynam: > = "dim.", fontstyle= "italic"
!!!ENC: Andrzej Gręziak
!!!EED: Katarzyna Serwa
!!!END: 2023-09-04
!!!EEV: 2023-10-14
